X: 7381
T:Longdans
R:Longdans
O:Sweden
M:3/4
K:Am
AA2c BA|BB2d cB|AA2c BA|G2A4::ec2e ce|dB2d Bd|
ec2e ce|dB2d cB|AA2c BA|BB2d cB|AA2cBA|G2A4:|
